X:1
T:Title
L:1/8
M:4/4
I:linebreak $
K:A
V:1 treble nm="Voice" snm="Voice"
V:1
"A" [FFc]4 e3 c | B2 Bc BA AB |$ F2 AA BA AB | A2 AB A F2 | E3 F EF A2 |]$ B3 c B2 AB | %6
 c2 B2 AF E2 | F2 AB AF EF | AB AF EF A2 |$ B2 (Bc) BA AB | F2 AB A F2 | E2 F EF A2 |] %12
